X: 10522
T: BURBANKS AIR
C:
%R: reel
B: Elias Howe "The Musician's Companion" Part 1 1842 p.53 #2
S: http://imslp.org/wiki/The_Musician's_Companion_(Howe,_Elias)
Z: 2015 John Chambers <jc:trillian.mit.edu>
M: C|
L: 1/8
K: Bb
% - - - - - - - - - - - - - - - - - - - - - - - - -
B |\
B2b2 fdcB | AFcF dFcF |\
B2b2 fdcB | FABc dBB :: B |\
BAFD ECCc | AFcF dFcF |\
BGFD ECCA | FABc dBB :|
% - - - - - - - - - - - - - - - - - - - - - - - - -


